X: 28
M:4/4
L:1/8
K:G
|:de/2f/2 g>d e>d "tr"B2|d>eB>g A>G E2|g>be>g d>eB>g|G<GB>G A2 G2:|
|:G>BA>c B>GA>c|B>GA>E G>B A2|G>BA>c B>dG>B|G<GB>G "tr"A2 G2:|

